X:1
L:1/8
M:4/4
K:G
""G"" D2 G2 F2 GB |""Am"" A8 |""D7"" A2 B2 cd B2 |""G"" B8 |""G"" D2 G2 F2 GB |""Am"" A8 |""D7"" A2 B2 cd B2 | 
""B7"" B8 |""C"" c2 e2 g3 g | fgfe e4 |""Am"" A2 c2 e3 e |""D7"" dedc""B7"" B4 |""Em"" G4 E4 | 
""Am"" A4""D7"" AB G2 |""G"" G4-""C"" G4- |""G"" G8 |]
